X: 35222
T: Rosaleen's Children
R: jig
M: 6/8
K: Edorian
|:~E3 GFE|GAB dcB|~E3 GFE|~F3 AFD|
~E3 GFE|GAB dcB|def edB|1 AFD E2D:|2 AFD E2A||
|:Bee dBA|Bee dBA|Bee def|afg e2d|
Bee dBA|Bee def|gfe fed|1 BAF E2A:|2 BAF E2D||

